icons/ava.svg

<!--
  - The MIT License (MIT)
  -
  - Copyright (c) 2015-2024 Elior "Mallowigi" Boukhobza
  -
  - Permission is hereby granted, free of charge, to any person obtaining a copy
  - of this software and associated documentation files (the "Software"), to deal
  - in the Software without restriction, including without limitation the rights
  - to use, copy, modify, merge, publish, distribute, sublicense, and/or sell
  - copies of the Software, and to permit persons to whom the Software is
  - furnished to do so, subject to the following conditions:
  -
  - The above copyright notice and this permission notice shall be included in all
  - copies or substantial portions of the Software.
  -
  - THE SOFTWARE IS PROVIDED "AS IS", WITHOUT WARRANTY OF ANY KIND, EXPRESS OR
  - IMPLIED, INCLUDING BUT NOT LIMITED TO THE WARRANTIES OF MERCHANTABILITY,
  - FITNESS FOR A PARTICULAR PURPOSE AND NONINFRINGEMENT. IN NO EVENT SHALL THE
  - AUTHORS OR COPYRIGHT HOLDERS BE LIABLE FOR ANY CLAIM, DAMAGES OR OTHER
  - LIABILITY, WHETHER IN AN ACTION OF CONTRACT, TORT OR OTHERWISE, ARISING FROM,
  - OUT OF OR IN CONNECTION WITH THE SOFTWARE OR THE USE OR OTHER DEALINGS IN THE
  - SOFTWARE.
  -
  -->

<svg  width="16px" height="16px" viewBox="0 0 512 280" version="1.1" xmlns="http://www.w3.org/2000/svg"
     preserveAspectRatio="xMidYMid">
  <g fill="#7986CB" data-iconColor="Ava">
    <path
        d="M116.548203,6.28104089 C122.765799,10.1511772 127.143494,14.9095415 129.744734,20.4292441 C133.61487,29.3115242 137.92912,38.9551425 142.62404,49.423544 C147.318959,59.8919455 152.077323,70.4872367 156.772243,81.2094176 C161.467162,91.9315985 166.035192,102.4 170.349442,112.551177 C174.663693,122.702354 178.597274,132.028748 182.023296,140.466914 C185.449318,148.905081 188.177447,156.074349 190.207683,161.974721 C192.237918,167.875093 193.253036,171.808674 193.253036,173.648575 C193.253036,176.820818 192.808922,179.866171 191.984139,182.911524 C191.159356,185.956877 189.636679,188.748451 187.416109,191.2228 C185.195539,193.69715 182.086741,195.727385 178.15316,197.186617 C174.156134,198.645849 169.0171,199.407187 162.736059,199.407187 C156.074349,199.407187 150.681537,198.518959 146.494176,196.742503 C142.306815,194.966047 138.880793,192.745477 136.089219,189.953903 C133.297646,187.16233 131.013631,184.243866 129.17373,181.198513 C127.333829,178.15316 125.430483,175.234696 123.463693,172.443123 C121.496902,169.651549 119.276332,167.430979 116.801983,165.654523 C114.327633,163.878067 110.901611,162.989839 106.650805,162.989839 L88.8862454,162.989839 C83.683767,162.989839 79.6232962,163.878067 76.5144981,165.654523 C73.469145,167.430979 70.9947955,169.651549 69.028005,172.443123 C67.0612144,175.234696 65.2847584,178.15316 63.6351921,181.198513 C61.9856258,184.243866 59.8285006,187.16233 57.2272615,189.953903 C54.6260223,192.745477 51.2634449,194.966047 47.0760843,196.742503 C42.8887237,198.518959 37.3055762,199.407187 30.263197,199.407187 C19.9216853,199.407187 12.3083024,197.123172 7.48649318,192.491698 C2.66468401,187.860223 0.25377943,182.403965 0.25377943,176.122924 C0.25377943,173.71202 1.20545229,169.524659 3.17224287,163.497398 C5.13903346,157.470136 7.74027261,150.300867 11.1028501,141.989591 C14.5923172,133.61487 18.3990087,124.415366 22.6498141,114.200743 C26.9006196,104.049566 31.4052045,93.51772 36.2270136,82.7320942 C41.0488228,71.8830235 45.870632,61.0973978 50.6289963,50.2483271 C55.4508055,39.3992565 60.08228,28.9942999 64.5234201,19.0334572 C67.1246592,13.3234201 71.4389095,8.75539033 77.4027261,5.45625774 C83.4299876,2.15712515 90.0916976,0.444114002 97.514746,0.444114002 C103.986121,0.444114002 110.330607,2.41090458 116.548203,6.28104089 Z M340.952664,7.23271375 C345.774473,11.6104089 348.185378,17.1935564 348.185378,24.045601 C348.185378,27.9157373 347.233705,32.9913259 345.266914,39.3358116 C343.300124,45.6168525 340.825774,52.7226766 337.780421,60.7167286 C334.735068,68.6473358 331.182156,77.2758364 327.248575,86.5387856 C323.251549,95.8017348 319.254523,105.191574 315.194052,114.835192 C309.674349,127.968278 304.85254,139.769021 300.918959,150.237423 C296.921933,160.705824 292.861462,169.588104 288.737546,176.884263 C284.550186,184.180421 280.045601,189.827014 275.160347,193.82404 C270.275093,197.821066 264.184387,199.787856 257.015118,199.787856 C249.592069,199.787856 243.437918,198.201735 238.552664,194.902602 C233.66741,191.666914 229.22627,186.78166 225.229244,180.183395 C221.232218,173.648575 217.362082,165.337299 213.55539,155.376456 C209.748699,145.415613 205.307559,133.551425 200.105081,119.847336 C196.234944,109.505824 192.237918,99.3546468 188.177447,89.4572491 C184.116976,79.5598513 180.437175,70.4237918 177.074597,62.1125155 C173.775465,53.8012392 171.047336,46.314746 168.890211,39.7799257 C166.79653,33.2451053 165.717968,28.1060719 165.717968,24.3628253 C165.717968,15.8612144 168.572986,9.77050805 174.346468,6.02726146 C180.056506,2.34745973 187.225774,0.50755886 195.727385,0.50755886 C203.467658,0.50755886 209.558364,1.45923172 213.872615,3.4260223 C218.186865,5.39281289 221.993556,7.93060719 225.102354,11.0394052 C227.322924,13.2599752 229.543494,16.4956629 231.764064,20.7464684 C233.984634,24.9972739 236.078315,29.6921933 237.98166,34.7677819 C239.948451,39.8433705 241.851797,44.982404 243.818587,50.1848823 C245.785378,55.3873606 247.561834,60.1457249 249.2114,64.4599752 C250.860967,68.8376704 252.510533,72.3271375 254.096654,74.9918216 C255.682776,77.6565056 257.078563,78.9888476 258.410905,78.9888476 C259.870136,78.9888476 261.392813,77.6565056 262.978934,74.9918216 C264.565056,72.3271375 266.151177,68.8376704 267.864188,64.5868649 C269.513755,60.3360595 271.226766,55.64114 273.003222,50.5655514 C274.779678,45.4899628 276.619579,40.4143742 278.522924,35.4656753 C280.42627,30.5169765 282.51995,25.8855019 284.613631,21.7615861 C286.707311,17.5742255 288.927881,14.4019827 291.148451,12.1814126 C293.178686,10.1511772 295.145477,8.43816605 297.112268,7.04237918 C299.079058,5.64659232 301.172739,4.50458488 303.520198,3.55291202 C305.804213,2.60123916 308.468897,1.96679058 311.450805,1.45923172 C314.432714,1.01511772 317.985626,0.76133829 322.299876,0.76133829 C329.849814,0.76133829 336.130855,2.91846344 340.952664,7.23271375 Z M435.168278,6.28104089 C441.385874,10.1511772 445.763569,14.9095415 448.364808,20.4292441 C452.234944,29.3115242 456.549195,38.9551425 461.244114,49.423544 C465.939033,59.8919455 470.697398,70.4872367 475.392317,81.2094176 C480.087237,91.9315985 484.655266,102.4 488.969517,112.551177 C493.283767,122.702354 497.217348,132.028748 500.643371,140.466914 C504.069393,148.905081 506.797522,156.074349 508.827757,161.974721 C510.857993,167.875093 511.87311,171.808674 511.87311,173.648575 C511.87311,176.820818 511.428996,179.866171 510.604213,182.911524 C509.77943,185.956877 508.256753,188.748451 506.036183,191.2228 C503.815613,193.69715 500.706815,195.727385 496.773234,197.186617 C492.776208,198.645849 487.637175,199.407187 481.356134,199.407187 C474.694424,199.407187 469.301611,198.518959 465.11425,196.742503 C460.92689,194.966047 457.500867,192.745477 454.709294,189.953903 C451.91772,187.16233 449.633705,184.243866 447.793804,181.198513 C445.953903,178.15316 444.050558,175.234696 442.083767,172.443123 C440.116976,169.651549 437.896406,167.430979 435.422057,165.654523 C432.947708,163.878067 429.521685,162.989839 425.27088,162.989839 L407.50632,162.989839 C402.303841,162.989839 398.243371,163.878067 395.134572,165.654523 C392.089219,167.430979 389.61487,169.651549 387.648079,172.443123 C385.681289,175.234696 383.904833,178.15316 382.255266,181.198513 C380.6057,184.243866 378.448575,187.16233 375.847336,189.953903 C373.246097,192.745477 369.883519,194.966047 365.696159,196.742503 C361.508798,198.518959 355.925651,199.407187 348.883271,199.407187 C338.54176,199.407187 330.928377,197.123172 326.106568,192.491698 C321.284758,187.860223 318.873854,182.403965 318.873854,176.122924 C318.873854,173.71202 319.825527,169.524659 321.792317,163.497398 C323.759108,157.470136 326.360347,150.300867 329.722924,141.989591 C333.022057,133.678315 336.828748,124.415366 341.079554,114.264188 C345.330359,104.113011 349.834944,93.5811648 354.656753,82.795539 C359.478563,71.9464684 364.300372,61.1608426 369.058736,50.311772 C373.880545,39.4627014 378.51202,29.0577447 382.95316,19.0969021 C385.554399,13.3868649 389.868649,8.81883519 395.832466,5.5197026 C401.859727,2.22057001 408.521437,0.50755886 415.944486,0.50755886 C422.606196,0.444114002 428.950682,2.41090458 435.168278,6.28104089 Z"></path>
    <path
        d="M96.8802974,279.538042 C98.402974,279.538042 99.8622057,278.713259 100.560099,277.317472 C100.560099,277.254027 106.587361,266.151177 112.551177,253.018092 C115.533086,246.419827 118.578439,239.377447 120.862454,232.842627 C122.004461,229.543494 122.956134,226.434696 123.654027,223.579678 C124.351921,220.661214 124.796035,217.99653 124.796035,215.585626 C124.796035,206.132342 121.306568,197.694176 115.469641,191.857249 C110.584387,186.971995 103.986121,183.990087 96.8168525,183.990087 C89.6475836,183.990087 83.0493185,186.971995 78.1640644,191.857249 C72.3905824,197.630731 68.8376704,206.068897 68.8376704,215.585626 C68.8376704,218.059975 69.2817844,220.724659 69.9796778,223.579678 C71.1851301,228.655266 73.2788104,234.428748 75.6262701,240.392565 C82.795539,258.22057 93.0736059,277.254027 93.0736059,277.380917 C93.8983891,278.649814 95.294176,279.538042 96.8802974,279.538042 Z M415.500372,279.538042 C417.023048,279.538042 418.48228,278.713259 419.180173,277.317472 C419.180173,277.254027 425.207435,266.151177 431.171252,253.018092 C434.15316,246.419827 437.198513,239.377447 439.482528,232.842627 C440.624535,229.543494 441.576208,226.434696 442.274102,223.579678 C442.971995,220.661214 443.416109,217.99653 443.416109,215.585626 C443.416109,206.132342 439.926642,197.694176 434.089715,191.857249 C429.204461,186.971995 422.606196,183.990087 415.436927,183.990087 C408.267658,183.990087 401.669393,186.971995 396.784139,191.857249 C391.010657,197.630731 387.457745,206.068897 387.457745,215.585626 C387.457745,218.059975 387.901859,220.724659 388.599752,223.579678 C389.805204,228.655266 391.898885,234.428748 394.246344,240.392565 C401.415613,258.22057 411.69368,277.254027 411.69368,277.380917 C412.518463,278.649814 413.91425,279.538042 415.500372,279.538042 Z"></path>
  </g>
</svg>

<svg xmlns="http://www.w3.org/2000/svg" preserveAspectRatio="xMidYMid" viewBox="0 0 512 280"><g fill="#7986cb" data-iconColor="Ava"><path d="M116.548 6.281c6.218 3.87 10.595 8.629 13.197 14.148 3.87 8.883 8.184 18.526 12.879 28.995 4.695 10.468 9.453 21.063 14.148 31.785s9.263 21.191 13.577 31.342c4.315 10.151 8.248 19.478 11.674 27.916q5.139 12.657 8.185 21.508c2.03 5.9 3.045 9.834 3.045 11.674 0 3.172-.444 6.217-1.269 9.263-.825 3.045-2.347 5.836-4.568 8.31s-5.33 4.505-9.263 5.965c-3.997 1.459-9.136 2.22-15.417 2.22-6.662 0-12.054-.888-16.242-2.664-4.187-1.777-7.613-3.998-10.405-6.79-2.791-2.79-5.075-5.71-6.915-8.754a149 149 0 0 0-5.71-8.756c-1.967-2.791-4.188-5.012-6.662-6.788s-5.9-2.665-10.151-2.665H88.886c-5.202 0-9.263.888-12.372 2.665-3.045 1.776-5.52 3.997-7.486 6.788s-3.743 5.71-5.393 8.756c-1.65 3.045-3.806 5.963-6.408 8.755-2.601 2.791-5.964 5.012-10.15 6.789-4.188 1.776-9.771 2.664-16.814 2.664-10.341 0-17.955-2.284-22.777-6.915q-7.232-6.948-7.232-16.37c0-2.41.951-6.597 2.918-12.625s4.568-13.196 7.93-21.507c3.49-8.375 7.297-17.575 11.548-27.79 4.25-10.15 8.755-20.682 13.577-31.468 4.822-10.849 9.644-21.635 14.402-32.484q7.233-16.273 13.894-31.215c2.602-5.71 6.916-10.278 12.88-13.577C83.43 2.157 90.092.444 97.515.444c6.471 0 12.816 1.967 19.033 5.837m224.405.952c4.821 4.377 7.232 9.96 7.232 16.813 0 3.87-.951 8.945-2.918 15.29-1.967 6.28-4.441 13.387-7.487 21.38-3.045 7.931-6.598 16.56-10.531 25.823a3472 3472 0 0 0-12.055 28.296c-5.52 13.133-10.341 24.934-14.275 35.402q-5.996 15.703-12.181 26.647c-4.188 7.296-8.692 12.943-13.578 16.94s-10.976 5.964-18.145 5.964c-7.423 0-13.577-1.586-18.462-4.885-4.886-3.236-9.327-8.121-13.324-14.72-3.997-6.534-7.867-14.846-11.674-24.807s-8.247-21.825-13.45-35.529a1047 1047 0 0 0-11.928-30.39c-4.06-9.897-7.74-19.033-11.102-27.344-3.3-8.312-6.028-15.798-8.185-22.333-2.093-6.535-3.172-11.674-3.172-15.417 0-8.502 2.855-14.592 8.628-18.336 5.71-3.68 12.88-5.52 21.381-5.52 7.74 0 13.831.952 18.146 2.919 4.314 1.967 8.12 4.505 11.23 7.613q3.33 3.332 6.661 9.707c2.22 4.251 4.314 8.946 6.218 14.022 1.966 5.075 3.87 10.214 5.837 15.417s3.743 9.96 5.392 14.275c1.65 4.378 3.3 7.867 4.886 10.532s2.982 3.997 4.314 3.997q2.19 0 4.568-3.997c1.586-2.665 3.172-6.154 4.885-10.405 1.65-4.25 3.363-8.946 5.14-14.021a529 529 0 0 1 5.519-15.1 147 147 0 0 1 6.09-13.704c2.094-4.188 4.315-7.36 6.535-9.58 2.03-2.03 3.997-3.744 5.964-5.14a31 31 0 0 1 6.408-3.49c2.284-.95 4.949-1.585 7.93-2.093 2.983-.444 6.536-.698 10.85-.698 7.55 0 13.83 2.157 18.653 6.472m94.215-.952c6.218 3.87 10.596 8.629 13.197 14.148 3.87 8.883 8.184 18.526 12.88 28.995 4.694 10.468 9.452 21.063 14.147 31.785s9.263 21.191 13.578 31.342 8.247 19.478 11.673 27.916q5.14 12.657 8.185 21.508c2.03 5.9 3.045 9.834 3.045 11.674 0 3.172-.444 6.217-1.269 9.263-.825 3.045-2.347 5.836-4.568 8.31s-5.33 4.505-9.263 5.965c-3.997 1.459-9.136 2.22-15.417 2.22-6.662 0-12.054-.888-16.242-2.664-4.187-1.777-7.613-3.998-10.405-6.79-2.791-2.79-5.075-5.71-6.915-8.754a149 149 0 0 0-5.71-8.756c-1.967-2.791-4.188-5.012-6.662-6.788s-5.9-2.665-10.151-2.665h-17.765c-5.202 0-9.263.888-12.371 2.665-3.046 1.776-5.52 3.997-7.487 6.788s-3.743 5.71-5.393 8.756c-1.65 3.045-3.806 5.963-6.408 8.755-2.6 2.791-5.963 5.012-10.15 6.789-4.188 1.776-9.771 2.664-16.814 2.664-10.341 0-17.955-2.284-22.776-6.915q-7.233-6.948-7.233-16.37c0-2.41.952-6.597 2.918-12.625s4.568-13.196 7.93-21.507c3.3-8.312 7.107-17.575 11.358-27.726 4.25-10.151 8.755-20.683 13.577-31.468 4.822-10.85 9.643-21.635 14.402-32.484q7.233-16.274 13.894-31.215c2.601-5.71 6.916-10.278 12.88-13.577 6.027-3.3 12.687-5.012 20.11-5.012 6.662-.064 13.007 1.903 19.224 5.773"/><path d="M96.88 279.538c1.523 0 2.982-.825 3.68-2.22 0-.064 6.027-11.167 11.991-24.3 2.982-6.598 6.027-13.64 8.311-20.175 1.142-3.3 2.094-6.408 2.792-9.263.698-2.919 1.142-5.583 1.142-7.994 0-9.454-3.49-17.892-9.326-23.729-4.886-4.885-11.484-7.867-18.653-7.867-7.17 0-13.768 2.982-18.653 7.867-5.773 5.774-9.326 14.212-9.326 23.729 0 2.474.444 5.139 1.142 7.994 1.205 5.075 3.299 10.849 5.646 16.813 7.17 17.828 17.448 36.861 17.448 36.988.824 1.269 2.22 2.157 3.806 2.157m318.62 0c1.523 0 2.982-.825 3.68-2.22 0-.064 6.027-11.167 11.991-24.3 2.982-6.598 6.028-13.64 8.312-20.175 1.142-3.3 2.093-6.408 2.791-9.263.698-2.919 1.142-5.583 1.142-7.994 0-9.454-3.49-17.892-9.326-23.729-4.886-4.885-11.484-7.867-18.653-7.867-7.17 0-13.768 2.982-18.653 7.867-5.773 5.774-9.326 14.212-9.326 23.729 0 2.474.444 5.139 1.142 7.994 1.205 5.075 3.299 10.849 5.646 16.813 7.17 17.828 17.448 36.861 17.448 36.988.824 1.269 2.22 2.157 3.806 2.157"/></g></svg>
